icons/desktop/16/svg/memories-slash-16.svg

<svg width="16" height="16" viewBox="0 0 16 16" fill="none" xmlns="http://www.w3.org/2000/svg">
<g clip-path="url(#clip0_13876_762)">
<path fill-rule="evenodd" clip-rule="evenodd" d="M0.219875 0.219631C0.512796 -0.0732897 0.986427 -0.0731308 1.27945 0.219631L5.58023 4.51846L5.42691 4.90713L4.72378 5.1835L4.7228 5.18252C4.5829 5.23749 4.46284 5.3203 4.34292 5.40225L2.55484 3.61416C2.51936 3.72923 2.50018 3.85085 2.50015 3.97647V11.5849C2.69009 11.5289 2.88804 11.5009 3.09097 11.5009H3.0939C5.5849 11.5089 7.29323 11.5059 7.45523 11.5009V11.5282C7.75521 11.4973 8.17425 11.497 8.75308 11.497H10.4376L9.0773 10.1366C9.15924 10.0167 9.24206 9.89666 9.29702 9.75576L9.59683 9.0458L9.96206 8.90225L12.1574 11.0976L12.1584 11.0966L13.5001 12.4384V12.4403L15.7794 14.7196C16.0724 15.0126 16.0724 15.4872 15.7794 15.7802C15.6336 15.9268 15.4419 15.9998 15.2501 15.9999C15.0582 15.9999 14.8659 15.9261 14.7199 15.7802L14.2472 15.3075C14.1452 15.3985 14.0188 15.465 13.8742 15.4892C11.8573 15.8281 9.79707 15.9999 7.75015 15.9999C6.10515 15.9999 4.44367 15.8888 2.81167 15.6688C1.77878 15.5308 1.00015 14.6376 1.00015 13.5937V3.97647C1.00021 3.43386 1.16064 2.9261 1.43862 2.49795L0.219875 1.2792C-0.0728867 0.986182 -0.0730456 0.512551 0.219875 0.219631ZM11.8585 12.9188C11.6621 12.9663 11.4609 12.9979 11.2531 12.998H7.52456V12.9638C7.0124 13.0117 5.87531 13.0089 3.08999 13.0019C2.93403 13.0019 2.78499 13.0638 2.673 13.1747C2.56202 13.2857 2.50017 13.4347 2.50015 13.5927C2.50015 13.8886 2.71989 14.1425 3.01284 14.1815C5.98484 14.5825 9.02115 14.5776 12.0001 14.2196V13.0595L11.8585 12.9188Z" fill="black"/>
<path d="M4.02066 1.19131C6.52566 0.935311 9.07809 0.944975 11.5861 1.24697C12.9619 1.41307 14 2.58658 14.0001 3.97842V10.247C14.0001 10.5228 13.957 10.7909 13.8781 11.0468L12.5001 9.66885V3.97744C12.5001 3.34352 12.0284 2.8093 11.4054 2.7333C10.1117 2.57835 8.7979 2.49991 7.50015 2.4999C6.80215 2.4999 6.10052 2.52619 5.40152 2.57119L5.40249 2.57217L4.02066 1.19131Z" fill="black"/>
<path d="M6.86538 4.66104C7.09238 4.08604 7.90598 4.08604 8.13198 4.66104L8.59195 5.82998L9.81656 6.34561C10.0785 6.44858 10.2481 6.6975 10.2482 6.9794C10.2482 7.2614 10.0786 7.51019 9.81558 7.61319L8.64859 8.0751L8.13198 9.29873C8.02901 9.56062 7.78006 9.72928 7.4982 9.7294L7.50015 9.73037C7.21822 9.73037 6.96941 9.56159 6.86636 9.29971L6.40542 8.13076L5.18081 7.61416C4.91895 7.5111 4.75015 7.26229 4.75015 6.98037C4.75026 6.69851 4.91892 6.44957 5.18179 6.34658L6.34878 5.88565L6.40445 5.82998L6.86538 4.66104Z" fill="black"/>
</g>
<defs>
<clipPath id="clip0_13876_762">
<rect width="16" height="16" fill="white"/>
</clipPath>
</defs>
</svg>

<!-- This Source Code Form is subject to the terms of the Mozilla Public
   - License, v. 2.0. If a copy of the MPL was not distributed with this
   - file, You can obtain one at http://mozilla.org/MPL/2.0/. -->
<svg xmlns="http://www.w3.org/2000/svg" width="16" height="16" fill="context-fill" fill-opacity="context-fill-opacity" viewBox="0 0 16 16">
    <g clip-path="url(#clip0_13876_762)">
        <path fill-rule="evenodd" d="M.22.22a.75.75 0 0 1 1.06 0l4.3 4.298-.153.39-.703.276-.001-.001c-.14.054-.26.137-.38.22L2.555 3.613a1.2 1.2 0 0 0-.055.362v7.609q.286-.084.591-.084h.003c2.49.008 4.2.005 4.361 0v.027c.3-.03.72-.031 1.298-.031h1.685l-1.36-1.36c.081-.12.164-.24.219-.381l.3-.71.365-.144 2.195 2.196.001-.001 1.342 1.341v.002l2.28 2.28a.75.75 0 0 1-1.06 1.06l-.473-.473a.74.74 0 0 1-.373.182 37 37 0 0 1-11.062.18A2.1 2.1 0 0 1 1 13.594V3.976c0-.542.16-1.05.439-1.478L.219 1.279a.75.75 0 0 1 0-1.06m11.638 12.699c-.196.047-.397.079-.605.079H7.525v-.034c-.513.048-1.65.045-4.435.038a.592.592 0 0 0-.077 1.18c2.972.4 6.008.396 8.987.038v-1.16z" clip-rule="evenodd" />
        <path d="M4.02 1.191a34.3 34.3 0 0 1 7.566.056A2.75 2.75 0 0 1 14 3.978v6.269q-.002.415-.122.8L12.5 9.669V3.977c0-.633-.472-1.168-1.095-1.244A33 33 0 0 0 7.5 2.5c-.698 0-1.4.026-2.098.071v.001z" />
        <path d="M6.865 4.661a.68.68 0 0 1 1.267 0l.46 1.169 1.225.516a.68.68 0 0 1 .431.633c0 .282-.17.531-.432.634l-1.167.462L8.132 9.3a.68.68 0 0 1-.634.43l.002.001a.68.68 0 0 1-.634-.43l-.46-1.17-1.225-.516a.68.68 0 0 1-.43-.634c0-.281.168-.53.43-.633l1.168-.461.055-.056z" />
    </g>
</svg>
